img/monogram.svg

<?xml version="1.0" encoding="UTF-8" standalone="no"?>
<svg width="35px" height="44px" viewBox="0 0 35 44" version="1.1" xmlns="http://www.w3.org/2000/svg" xmlns:xlink="http://www.w3.org/1999/xlink" xmlns:sketch="http://www.bohemiancoding.com/sketch/ns">
    <!-- Generator: Sketch 3.2.2 (9983) - http://www.bohemiancoding.com/sketch -->
    <title>monogram</title>
    <desc>Created with Sketch.</desc>
    <defs></defs>
    <g id="Page-1" stroke="none" stroke-width="1" fill="none" fill-rule="evenodd" sketch:type="MSPage">
        <g id="Desktop" sketch:type="MSArtboardGroup" transform="translate(-81.000000, -72.000000)" fill="#6A7184">
            <path d="M93.3576385,99.9717758 C93.1129328,99.9717758 92.8682271,99.9717758 92.6235214,99.8494229 C89.6870528,97.7694243 87.9741128,94.4658972 87.9741128,90.9176644 C87.9741128,85.0447272 92.7458742,80.2729658 98.7411642,80.2729658 C102.778808,80.2729658 106.571747,82.720023 108.40704,86.3906087 C108.651746,87.002373 108.40704,87.7364901 107.795276,87.9811958 C107.183511,88.3482544 106.449394,88.1035487 106.204688,87.4917844 C104.858807,84.5553158 101.922339,82.720023 98.7411642,82.720023 C94.0917557,82.720023 90.42117,86.3906087 90.42117,90.9176644 C90.42117,93.7317801 91.7670514,96.1788372 93.9694028,97.7694243 C94.5811671,98.1364829 94.70352,98.8706001 94.3364614,99.4823643 C94.0917557,99.8494229 93.7246971,99.9717758 93.3576385,99.9717758 L93.3576385,99.9717758 Z M105.715277,105.72236 L92.7458742,105.72236 C92.2564628,105.72236 91.7670514,105.477654 91.6446985,104.988243 C91.3999928,104.498831 91.5223457,104.00942 91.8894042,103.642361 L103.635278,92.0188401 L92.8682271,92.0188401 C92.2564628,92.0188401 91.6446985,91.5294287 91.6446985,90.7953115 C91.6446985,90.1835472 92.2564628,89.5717829 92.8682271,89.5717829 L106.6941,89.5717829 C107.183511,89.5717829 107.55057,89.9388415 107.795276,90.3059001 C107.917628,90.7953115 107.917628,91.2847229 107.55057,91.6517815 L95.6823428,103.275303 L105.715277,103.275303 C106.449394,103.275303 106.938806,103.764714 106.938806,104.498831 C106.938806,105.232949 106.449394,105.72236 105.715277,105.72236 L105.715277,105.72236 Z M98.2517528,116 L98.1293999,116 C93.4799914,116 89.1976414,114.164707 86.0164671,110.86118 C82.71294,107.680006 81,103.275303 81,98.6258943 L81,89.5717829 C81.1223529,80.150613 88.8305828,72.442383 98.2517528,72.442383 C102.901161,72.442383 107.305864,74.2776759 110.487038,77.581203 C113.790566,80.7623773 115.503506,85.1670801 115.503506,89.6941358 L115.503506,98.8706001 C115.381153,108.29177 107.672923,116 98.2517528,116 L98.2517528,116 L98.2517528,116 Z M98.3741057,74.8894401 C90.1764643,74.8894401 83.56941,81.4964944 83.4470571,89.5717829 L83.4470571,98.7482472 C83.4470571,102.663539 84.9152914,106.334124 87.7294071,109.14824 C90.5435228,111.962356 94.2141085,113.552943 98.1293999,113.552943 L98.2517528,114.776471 L98.2517528,113.552943 C106.327041,113.552943 112.934096,106.945889 113.056448,98.8706001 L113.056448,89.6941358 C113.056448,85.7788444 111.588214,82.1082587 108.774098,79.294143 C105.959983,76.4800273 102.289397,74.8894401 98.3741057,74.8894401 L98.3741057,74.8894401 L98.3741057,74.8894401 Z" id="monogram" sketch:type="MSShapeGroup"></path>
        </g>
    </g>
</svg>

<svg width="35" height="44" viewBox="0 0 35 44" xmlns="http://www.w3.org/2000/svg"><title>monogram</title><desc>Created with Sketch.</desc><path d="M12.358 27.972c-.245 0-.49 0-.734-.123-2.937-2.08-4.65-5.384-4.65-8.932 0-5.873 4.772-10.645 10.767-10.645 4.04 0 7.832 2.447 9.667 6.118.245.612 0 1.346-.612 1.59-.61.368-1.346.124-1.59-.488-1.346-2.937-4.283-4.772-7.464-4.772-4.648 0-8.32 3.67-8.32 8.198 0 2.814 1.347 5.26 3.55 6.85.61.368.734 1.103.366 1.714-.244.367-.61.49-.978.49zm93.357 77.75h-12.97c-.49 0-.978-.244-1.1-.734-.245-.49-.123-.98.244-1.346l11.745-11.623H92.868c-.612 0-1.223-.49-1.223-1.225 0-.61.61-1.223 1.223-1.223h13.826c.49 0 .857.367 1.1.734.124.49.124.98-.243 1.346l-11.868 11.623h10.033c.734 0 1.224.49 1.224 1.224 0 .733-.49 1.222-1.225 1.222zM98.252 116h-.123c-4.65 0-8.932-1.835-12.114-5.14C82.713 107.68 81 103.276 81 98.627v-9.054c.122-9.42 7.83-17.13 17.252-17.13 4.65 0 9.054 1.836 12.235 5.14 3.304 3.18 5.017 7.585 5.017 12.112v9.177c-.123 9.422-7.83 17.13-17.252 17.13zm.122-41.11c-8.198 0-14.805 6.606-14.927 14.682v9.176c0 3.916 1.468 7.586 4.282 10.4s6.484 4.405 10.4 4.405l.122 1.223v-1.223c8.075 0 14.682-6.607 14.804-14.682v-9.176c0-3.915-1.468-7.586-4.282-10.4s-6.485-4.405-10.4-4.405z" fill="#6A7184"/></svg>
